static/fa/svgs/regular/face-grin-squint-tears.svg

<svg xmlns="http://www.w3.org/2000/svg" viewBox="0 0 512 512"><!--! Font Awesome Free 6.1.1 by @fontawesome - https://fontawesome.com License - https://fontawesome.com/license/free (Icons: CC BY 4.0, Fonts: SIL OFL 1.1, Code: MIT License) Copyright 2022 Fonticons, Inc.--><path d="M426.8 14.18c19.2-19.226 50.7-18.826 70.3.74 19.5 19.57 19.9 51.03.7 70.26-14.8 14.79-65.6 23.62-88.2 26.72-6.5.9-10.4-3.9-9.5-9.5 3.2-22.46 11.9-73.43 26.7-88.22zM74.98 74.98C158.2-8.253 284.5-22.19 382.2 33.17c-1.6 4.79-2.9 9.64-4.1 14.35-3.1 12.15-5.5 24.56-7.3 35-80.7-53.59-190.7-44.78-261.9 26.38C37.75 180.1 28.94 290 82.49 370.8c-10.48 1.8-22.89 3.3-35.03 7.3-4.7 1.2-9.53 2.5-14.31 4-55.34-97.6-41.395-223.9 41.83-307.12zM478.8 129.9c55.4 97.6 41.4 223.9-41.8 307.1-83.2 83.3-209.5 97.2-307.2 41.8 1.5-4.8 2.9-9.6 4.1-14.3 2.2-12.2 5.5-24.6 7.3-35 80.7 53.6 190.7 44.8 261.9-26.4 71.2-71.2 80-182 26.4-261.9 9.6-1.8 22.9-4.2 35-7.3 4.7-1.2 9.6-2.5 14.3-4zm-119.6 97c10.1-16.3 33.8-16.9 37.8 1.9 9.6 44.3-3.6 93.5-39.2 129.1-35.6 35.6-84.8 48.8-129.2 39.2-18.7-4-18.1-27.7-1.8-37.8 25.2-15.7 49.3-35.4 73.6-58.8 23.4-23.4 43.1-48.4 58.8-73.6zm-169.7 8.8c11.6-3.6 21.6 6.4 19 18.9l-29.7 97.5c-2.6 8.6-13.4 11.3-19.8 4.9-1.9-2-3.2-4.5-3.4-7.3l-5.1-56.1-56.07-5.1c-2.77-.2-5.36-1.4-7.33-3.4-6.34-6.4-3.64-17.2 4.95-19.8l97.45-29.6zm99-141.27 5.1 56.07 56.1 5.1c2.8.2 5.3 1.5 7.3 3.4 6.4 6.4 3.7 17.2-4.9 19.8l-97.5 29.7c-12.5 2.6-22.5-7.4-18.9-19l29.6-97.45c2.6-8.59 13.4-11.29 19.8-4.95 2 1.97 3.2 4.56 3.4 7.33zM14.18 426.8c14.79-14.8 65.67-23.6 88.22-26.7 5.6-.9 10.4 3 9.5 9.5-3.2 22.5-11.93 73.4-26.72 88.2-19.23 19.2-50.68 18.8-70.25-.7-19.575-19.6-19.976-51.1-.75-70.3z"/></svg>

<svg xmlns="http://www.w3.org/2000/svg" viewBox="0 0 512 512"><!--! Font Awesome Free 6.1.1 by @fontawesome - https://fontawesome.com License - https://fontawesome.com/license/free (Icons: CC BY 4.0, Fonts: SIL OFL 1.1, Code: MIT License) Copyright 2022 Fonticons, Inc. --><path d="M426.8 14.18C446-5.046 477.5-4.646 497.1 14.92C516.6 34.49 517 65.95 497.8 85.18C483 99.97 432.2 108.8 409.6 111.9C403.1 112.8 399.2 108 400.1 102.4C403.3 79.94 412 28.97 426.8 14.18H426.8zM74.98 74.98C158.2-8.253 284.5-22.19 382.2 33.17C380.6 37.96 379.3 42.81 378.1 47.52C375 59.67 372.6 72.08 370.8 82.52C290.1 28.93 180.1 37.74 108.9 108.9C37.75 180.1 28.94 290 82.49 370.8C72.01 372.6 59.6 374.1 47.46 378.1C42.76 379.3 37.93 380.6 33.15 382.1C-22.19 284.5-8.245 158.2 74.98 74.98V74.98zM478.8 129.9C534.2 227.5 520.2 353.8 437 437C353.8 520.3 227.5 534.2 129.8 478.8C131.3 474 132.7 469.2 133.9 464.5C136.1 452.3 139.4 439.9 141.2 429.5C221.9 483.1 331.9 474.3 403.1 403.1C474.3 331.9 483.1 221.1 429.5 141.2C439.1 139.4 452.4 137 464.5 133.9C469.2 132.7 474.1 131.4 478.8 129.9L478.8 129.9zM359.2 226.9C369.3 210.6 393 210 397 228.8C406.6 273.1 393.4 322.3 357.8 357.9C322.2 393.5 273 406.7 228.6 397.1C209.9 393.1 210.5 369.4 226.8 359.3C252 343.6 276.1 323.9 300.4 300.5C323.8 277.1 343.5 252.1 359.2 226.9L359.2 226.9zM189.5 235.7C201.1 232.1 211.1 242.1 208.5 254.6L178.8 352.1C176.2 360.7 165.4 363.4 159 357C157.1 355 155.8 352.5 155.6 349.7L150.5 293.6L94.43 288.5C91.66 288.3 89.07 287.1 87.1 285.1C80.76 278.7 83.46 267.9 92.05 265.3L189.5 235.7zM288.5 94.43L293.6 150.5L349.7 155.6C352.5 155.8 355 157.1 357 159C363.4 165.4 360.7 176.2 352.1 178.8L254.6 208.5C242.1 211.1 232.1 201.1 235.7 189.5L265.3 92.05C267.9 83.46 278.7 80.76 285.1 87.1C287.1 89.07 288.3 91.66 288.5 94.43V94.43zM14.18 426.8C28.97 412 79.85 403.2 102.4 400.1C108 399.2 112.8 403.1 111.9 409.6C108.7 432.1 99.97 483 85.18 497.8C65.95 517 34.5 516.6 14.93 497.1C-4.645 477.5-5.046 446 14.18 426.8H14.18z"/></svg>
